public/assets/icons/protocol.svg

<?xml version="1.0" standalone="no"?>
<!DOCTYPE svg PUBLIC "-//W3C//DTD SVG 1.1//EN" "http://www.w3.org/Graphics/SVG/1.1/DTD/svg11.dtd" >
<svg xmlns="http://www.w3.org/2000/svg" xmlns:xlink="http://www.w3.org/1999/xlink" version="1.1" viewBox="0 -64 1024 1024" width="512" height="512">
  <g transform="matrix(1 0 0 -1 0 960)">
   <path fill="currentColor"
d="M512 755q-61 0 -117 -25t-98 -67t-67 -98t-25 -117h68q0 46 20 89t53.5 76.5t76.5 53.5t89 20q48 0 92.5 -22t77.5 -58l-68 -22l171 -69v196l-45 -63q-43 48 -102.5 77t-125.5 29v0zM512 516v0v0q-28 0 -48 -20t-20 -48v0v0v0v0v0q0 -28 20 -48t48 -20v0v0v0v0v0
q28 0 48 20t20 48v0v0v0v0v0q0 28 -20 48t-48 20v0v0v0v0zM751 448v0q0 -46 -20 -89t-53.5 -76.5t-76.5 -53.5t-89 -20q-48 0 -92.5 22t-77.5 58l68 22l-171 69v-196l45 63q43 -48 102.5 -77t125.5 -29q61 0 117 25t98 67t67 98t25 117v0h-68z" />
  </g>

</svg>

<?xml version="1.0" encoding="UTF-8" standalone="no"?>
<svg
   version="1.1"
   viewBox="0 -64 1024 1024"
   width="512"
   height="512"
   id="svg1637"
   sodipodi:docname="protocol.svg"
   inkscape:version="1.2.2 (732a01da63, 2022-12-09)"
   xmlns:inkscape="http://www.inkscape.org/namespaces/inkscape"
   xmlns:sodipodi="http://sodipodi.sourceforge.net/DTD/sodipodi-0.dtd"
   xmlns="http://www.w3.org/2000/svg"
   xmlns:svg="http://www.w3.org/2000/svg">
  <defs
     id="defs1641" />
  <sodipodi:namedview
     id="namedview1639"
     pagecolor="#ffffff"
     bordercolor="#000000"
     borderopacity="0.25"
     inkscape:showpageshadow="2"
     inkscape:pageopacity="0.0"
     inkscape:pagecheckerboard="0"
     inkscape:deskcolor="#d1d1d1"
     showgrid="false"
     inkscape:zoom="1.6191406"
     inkscape:cx="236.23643"
     inkscape:cy="256.30881"
     inkscape:window-width="1920"
     inkscape:window-height="1009"
     inkscape:window-x="-8"
     inkscape:window-y="-8"
     inkscape:window-maximized="1"
     inkscape:current-layer="svg1637" />
  <g
     transform="matrix(1,0,0,-1,0,896)"
     id="g1635">
    <path
       fill="currentColor"
       d="m 512,755 q -61,0 -117,-25 -56,-25 -98,-67 -42,-42 -67,-98 -25,-56 -25,-117 h 68 q 0,46 20,89 20,43 53.5,76.5 33.5,33.5 76.5,53.5 43,20 89,20 48,0 92.5,-22 Q 649,643 682,607 L 614,585 785,516 V 712 L 740,649 Q 697,697 637.5,726 578,755 512,755 Z m 0,-239 v 0 0 q -28,0 -48,-20 -20,-20 -20,-48 v 0 0 0 0 0 q 0,-28 20,-48 20,-20 48,-20 v 0 0 0 0 0 q 28,0 48,20 20,20 20,48 v 0 0 0 0 0 q 0,28 -20,48 -20,20 -48,20 v 0 0 0 z m 239,-68 v 0 Q 751,402 731,359 711,316 677.5,282.5 644,249 601,229 558,209 512,209 464,209 419.5,231 375,253 342,289 l 68,22 -171,69 V 184 l 45,63 q 43,-48 102.5,-77 59.5,-29 125.5,-29 61,0 117,25 56,25 98,67 42,42 67,98 25,56 25,117 v 0 z"
       id="path1633" />
  </g>
</svg>
